Simply white circles/scalable/mimes/libreoffice-oasis-text-template.svg

<?xml version="1.0" encoding="UTF-8" standalone="no"?>
<!-- Created with Inkscape (http://www.inkscape.org/) -->

<svg
   xmlns:dc="http://purl.org/dc/elements/1.1/"
   xmlns:cc="http://creativecommons.org/ns#"
   xmlns:rdf="http://www.w3.org/1999/02/22-rdf-syntax-ns#"
   xmlns:svg="http://www.w3.org/2000/svg"
   xmlns="http://www.w3.org/2000/svg"
   xmlns:xlink="http://www.w3.org/1999/xlink"
   xmlns:sodipodi="http://sodipodi.sourceforge.net/DTD/sodipodi-0.dtd"
   xmlns:inkscape="http://www.inkscape.org/namespaces/inkscape"
   version="1.1"
   width="48"
   height="48"
   id="svg21744"
   sodipodi:docname="libreoffice-oasis-text-template.svg"
   inkscape:version="0.92.3 (2405546, 2018-03-11)">
  <sodipodi:namedview
     pagecolor="#ffffff"
     bordercolor="#666666"
     borderopacity="1"
     objecttolerance="10"
     gridtolerance="10"
     guidetolerance="10"
     inkscape:pageopacity="0"
     inkscape:pageshadow="2"
     inkscape:window-width="1366"
     inkscape:window-height="719"
     id="namedview44"
     showgrid="false"
     inkscape:zoom="4.9166667"
     inkscape:cx="-46.786925"
     inkscape:cy="24.835131"
     inkscape:window-x="0"
     inkscape:window-y="25"
     inkscape:window-maximized="1"
     inkscape:current-layer="svg21744"
     inkscape:snap-global="false"
     showguides="true"
     inkscape:guide-bbox="true" />
  <defs
     id="defs21746">
    <linearGradient
       x1="525.4375"
       y1="836.1875"
       x2="516.65625"
       y2="828.5"
       id="linearGradient14113"
       xlink:href="#linearGradient14494-2-7"
       gradientUnits="userSpaceOnUse"
       gradientTransform="translate(-125.5,-1702.64)" />
    <linearGradient
       id="linearGradient14494-2-7">
      <stop
         id="stop14496-9-3"
         style="stop-color:#dc85e9;stop-opacity:1"
         offset="0" />
      <stop
         id="stop14498-9-7"
         style="stop-color:#f2cbf8;stop-opacity:1"
         offset="1" />
    </linearGradient>
    <linearGradient
       x1="520.58502"
       y1="735.05206"
       x2="516.15179"
       y2="720.86298"
       id="linearGradient14115"
       xlink:href="#linearGradient14494-5"
       gradientUnits="userSpaceOnUse" />
    <linearGradient
       id="linearGradient14494-5">
      <stop
         id="stop14496-5"
         style="stop-color:#dc85e9;stop-opacity:1"
         offset="0" />
      <stop
         id="stop14498-1"
         style="stop-color:#f2cbf8;stop-opacity:1"
         offset="1" />
    </linearGradient>
    <linearGradient
       x1="525.4375"
       y1="836.1875"
       x2="516.65625"
       y2="828.5"
       id="linearGradient54948"
       xlink:href="#linearGradient14494-2-7"
       gradientUnits="userSpaceOnUse"
       gradientTransform="translate(-462.50049,-802.00385)" />
    <linearGradient
       x1="520.58502"
       y1="735.05206"
       x2="516.15179"
       y2="720.86298"
       id="linearGradient14109"
       xlink:href="#linearGradient14494-5"
       gradientUnits="userSpaceOnUse"
       gradientTransform="matrix(0.512535,0,0,0.615385,-202.35949,-422.92385)" />
    <linearGradient
       x1="525.4375"
       y1="836.1875"
       x2="516.65625"
       y2="828.5"
       id="linearGradient54952"
       xlink:href="#linearGradient14494-2-7"
       gradientUnits="userSpaceOnUse"
       gradientTransform="translate(-462.50049,-797.50385)" />
    <linearGradient
       x1="209.0625"
       y1="-765.46082"
       x2="209.0625"
       y2="-781.62268"
       id="linearGradient44039"
       xlink:href="#linearGradient15606-1"
       gradientUnits="userSpaceOnUse"
       gradientTransform="matrix(1.5,0,0,1.5,-364.99949,1176.9562)" />
    <linearGradient
       id="linearGradient15606-1">
      <stop
         id="stop15608-0"
         style="stop-color:#ffffff;stop-opacity:0.58823502"
         offset="0" />
      <stop
         id="stop15610-5"
         style="stop-color:#ffffff;stop-opacity:0.86274499"
         offset="1" />
    </linearGradient>
    <linearGradient
       x1="294.3429"
       y1="256.58133"
       x2="294.41818"
       y2="243.13852"
       id="linearGradient44042"
       xlink:href="#linearGradient10286-3"
       gradientUnits="userSpaceOnUse"
       gradientTransform="matrix(2.99213,0,0,3.00466,-830.71149,-727.44385)" />
    <linearGradient
       id="linearGradient10286-3">
      <stop
         id="stop10288-8"
         style="stop-color:#b3b3b3;stop-opacity:1"
         offset="0" />
      <stop
         id="stop10290-7"
         style="stop-color:#e6e6e6;stop-opacity:1"
         offset="1" />
    </linearGradient>
    <linearGradient
       x1="110.96875"
       y1="976.29968"
       x2="110.96875"
       y2="992.375"
       id="linearGradient43236"
       xlink:href="#linearGradient4145-42"
       gradientUnits="userSpaceOnUse" />
    <linearGradient
       id="linearGradient4145-42">
      <stop
         id="stop4953"
         style="stop-color:#e694bb;stop-opacity:1"
         offset="0" />
      <stop
         id="stop4955"
         style="stop-color:#d3819a;stop-opacity:1"
         offset="0.26238" />
      <stop
         id="stop4957"
         style="stop-color:#b25a64;stop-opacity:1"
         offset="0.704952" />
      <stop
         id="stop4959"
         style="stop-color:#98313d;stop-opacity:1"
         offset="1" />
    </linearGradient>
    <linearGradient
       x1="110.96875"
       y1="976.29968"
       x2="110.99982"
       y2="991.87488"
       id="linearGradient14097-7"
       xlink:href="#linearGradient4145-42"
       gradientUnits="userSpaceOnUse"
       gradientTransform="matrix(1,0,0,1.00011,0,-0.10551)" />
    <linearGradient
       x1="110.96875"
       y1="976.29968"
       x2="110.96875"
       y2="992.375"
       id="linearGradient21742"
       xlink:href="#linearGradient4145-42"
       gradientUnits="userSpaceOnUse"
       gradientTransform="matrix(1.00399,0,0,1.00959,-1.1658,-9.36636)" />
    <clipPath
       clipPathUnits="userSpaceOnUse"
       id="clipPath867">
      <g
         inkscape:label="Clip"
         id="use869">
        <path
           d="m 47.000614,3.0210706 v 0.75 40.5000404 0.72723 h 0.75 32.499399 0.75 v -0.72723 -25.50003 -0.3282 l -0.2344,-0.2343 -14.9059,-15.0000104 -0.1875,-0.1875 h -0.3282 -17.593399 z"
           id="path875"
           style="color:#000000;font-style:normal;font-variant:normal;font-weight:normal;font-stretch:normal;font-size:medium;line-height:normal;font-family:'Andale Mono';text-indent:0pt;text-align:start;text-decoration:none;text-decoration-line:none;letter-spacing:normal;word-spacing:normal;text-transform:none;direction:ltr;text-anchor:start;display:inline;overflow:visible;visibility:visible;fill:#000000;fill-opacity:1;fill-rule:nonzero;stroke:none;stroke-width:1;marker:none"
           inkscape:connector-curvature="0" />
      </g>
    </clipPath>
  </defs>
  <metadata
     id="metadata21749">
    <rdf:RDF>
      <cc:Work
         rdf:about="">
        <dc:format>image/svg+xml</dc:format>
        <dc:type
           rdf:resource="http://purl.org/dc/dcmitype/StillImage" />
        <dc:title></dc:title>
      </cc:Work>
    </rdf:RDF>
  </metadata>
  <path
     style="color:#000000;font-style:normal;font-variant:normal;font-weight:normal;font-stretch:normal;font-size:medium;line-height:normal;font-family:'Andale Mono';text-indent:0pt;text-align:start;text-decoration:none;text-decoration-line:none;letter-spacing:normal;word-spacing:normal;text-transform:none;direction:ltr;text-anchor:start;display:inline;overflow:visible;visibility:visible;fill:#e6e6e6;fill-opacity:1;stroke:none;stroke-width:5.99873972;marker:none"
     d="M 32.9375 -0.01171875 C 31.939073 0.30807755 31.603332 1.8281949 32.373047 2.5429688 L 41.408203 11.625 C 42.242926 12.420622 43.90524 11.739587 43.949219 10.583984 L 43.949219 1.5019531 C 43.949129 0.70932976 43.231852 -0.01162885 42.443359 -0.01171875 L 33.408203 -0.01171875 C 33.252508 -0.03570975 33.093105 -0.03570975 32.9375 -0.01171875 z M 6.4375 0.013671875 C 5.062346 0.27607036 3.975341 1.6123099 4 3.0117188 L 4 45 C 4.00015 46.570313 5.429312 47.99985 7 48 L 41 48 C 42.570687 47.99985 43.99985 46.570313 44 45 L 44 18.818359 C 44.018 18.026395 43.707481 17.231289 43.15625 16.662109 L 27.34375 0.85742188 C 26.774429 0.30647497 25.979653 -0.004681045 25.1875 0.013671875 L 7 0.013671875 C 6.813106 -0.004321175 6.624454 -0.004321175 6.4375 0.013671875 z M 10.185547 3.0214844 L 25.34375 3.0214844 L 25.671875 3.0214844 L 25.859375 3.2089844 L 40.765625 18.208984 L 41 18.443359 L 41 18.771484 L 41 44.271484 L 41 44.998047 L 40.25 44.998047 L 10.185547 44.998047 L 10.185547 3.0214844 z M 11.839844 7.8417969 C 11.682719 7.8417969 11.556641 7.969771 11.556641 8.1269531 L 11.556641 21.722656 C 11.556641 21.879838 11.682719 22.007812 11.839844 22.007812 L 29.230469 22.007812 C 29.387708 22.007812 29.515625 21.879838 29.515625 21.722656 L 29.515625 8.1269531 C 29.515625 7.969771 29.387708 7.8417969 29.230469 7.8417969 L 11.839844 7.8417969 z M 13.263672 9.5488281 L 27.808594 9.5488281 L 27.808594 19.738281 L 23.894531 15.685547 C 23.851281 15.640877 23.78104 15.638608 23.734375 15.679688 L 21.019531 18.068359 L 17.550781 13.796875 C 17.528241 13.768995 17.494301 13.753106 17.457031 13.753906 C 17.421121 13.754646 17.388637 13.771981 17.367188 13.800781 L 13.263672 19.306641 L 13.263672 9.5488281 z M 23.509766 10.867188 C 22.738708 10.867188 22.113281 11.492843 22.113281 12.263672 C 22.113281 13.034673 22.738765 13.660156 23.509766 13.660156 C 24.280197 13.660156 24.90625 13.03473 24.90625 12.263672 C 24.90625 11.492843 24.280197 10.867188 23.509766 10.867188 z M 13.982422 25.351562 C 12.851223 25.351562 11.941406 25.410152 11.941406 25.482422 L 11.941406 27.052734 C 11.941406 27.125004 12.851223 27.181641 13.982422 27.181641 L 36.849609 27.181641 C 37.980809 27.181641 38.892578 27.125001 38.892578 27.052734 L 38.892578 25.482422 C 38.892578 25.410152 37.980809 25.351562 36.849609 25.351562 L 13.982422 25.351562 z M 13.966797 29.326172 C 12.835598 29.326172 11.923828 29.384762 11.923828 29.457031 L 11.923828 31.025391 C 11.923828 31.097661 12.835598 31.15625 13.966797 31.15625 L 36.833984 31.15625 C 37.965183 31.15625 38.875 31.09766 38.875 31.025391 L 38.875 29.457031 C 38.875 29.384761 37.965183 29.326172 36.833984 29.326172 L 13.966797 29.326172 z M 14.005859 33.185547 C 12.87466 33.185547 11.964844 33.244137 11.964844 33.316406 L 11.964844 34.886719 C 11.964844 34.958989 12.87466 35.017578 14.005859 35.017578 L 36.873047 35.017578 C 38.004247 35.017578 38.916016 34.958988 38.916016 34.886719 L 38.916016 33.316406 C 38.916016 33.244136 38.004247 33.185547 36.873047 33.185547 L 14.005859 33.185547 z "
     id="path896" />
</svg>

<svg xmlns="http://www.w3.org/2000/svg" width="48" height="48"><defs><linearGradient id="a"><stop offset="0" stop-color="#dc85e9"/><stop offset="1" stop-color="#f2cbf8"/></linearGradient><linearGradient id="b"><stop offset="0" stop-color="#dc85e9"/><stop offset="1" stop-color="#f2cbf8"/></linearGradient><linearGradient id="c"><stop offset="0" stop-color="#fff" stop-opacity=".588"/><stop offset="1" stop-color="#fff" stop-opacity=".863"/></linearGradient><linearGradient id="d"><stop offset="0" stop-color="#b3b3b3"/><stop offset="1" stop-color="#e6e6e6"/></linearGradient><linearGradient id="e"><stop offset="0" stop-color="#e694bb"/><stop offset=".262" stop-color="#d3819a"/><stop offset=".705" stop-color="#b25a64"/><stop offset="1" stop-color="#98313d"/></linearGradient></defs><path style="line-height:normal;text-indent:0;text-align:start;text-decoration-line:none;text-transform:none;marker:none" d="M32.938-.012c-.999.32-1.335 1.84-.565 2.555l9.035 9.082c.835.796 2.497.115 2.541-1.041V1.502c0-.793-.717-1.514-1.506-1.514h-9.035a1.548 1.548 0 0 0-.47 0zm-26.5.026C5.062.276 3.974 1.612 4 3.012V45c0 1.57 1.43 3 3 3h34c1.57 0 3-1.43 3-3V18.818a3.038 3.038 0 0 0-.844-2.156L27.344.857a3.038 3.038 0 0 0-2.157-.843H7a2.938 2.938 0 0 0-.563 0zm3.748 3.007H25.672l.187.188 14.907 15 .234.234v26.555H10.186V3.021zm1.654 4.82a.284.284 0 0 0-.283.286v13.596c0 .157.126.285.283.285h17.39a.286.286 0 0 0 .286-.285V8.127a.286.286 0 0 0-.286-.285H11.84zm1.424 1.708h14.545v10.19l-3.914-4.053a.116.116 0 0 0-.16-.006l-2.715 2.388-3.47-4.271a.116.116 0 0 0-.183.004l-4.103 5.506V9.549zm10.246 1.318a1.397 1.397 0 1 0 0 2.794 1.397 1.397 0 0 0 0-2.794zm-9.528 14.485c-1.13 0-2.04.058-2.04.13v1.57c0 .073.91.13 2.04.13H36.85c1.13 0 2.043-.057 2.043-.13v-1.57c0-.072-.912-.13-2.043-.13H13.982zm-.015 3.974c-1.131 0-2.043.059-2.043.131v1.568c0 .073.912.131 2.043.131h22.867c1.131 0 2.041-.058 2.041-.13v-1.569c0-.072-.91-.13-2.041-.13H13.967zm.039 3.86c-1.131 0-2.041.058-2.041.13v1.57c0 .073.91.132 2.04.132h22.868c1.131 0 2.043-.059 2.043-.131v-1.57c0-.073-.912-.131-2.043-.131H14.006z" color="#000" font-weight="400" font-family="Andale Mono" overflow="visible" fill="#e6e6e6"/></svg>
